!!!COM: Music21
!!!OTL: strathspey_Peace-And-Plenty
!!!OMV: strathspey_Peace-And-Plenty
**kern
*clefG2
*k[]
*M4/4
=1
8.aL
16bJk
=
4cc
4e
4e
16dKL
8.eJ
=
4g
16eKL
8.cJ
4d
16cKL
8.BJ
=
6A
12G
6A
12B
6c
12e
8dL
8cJ
=
4c
2B
8.aL
16bJk
=
4cc
4e
4e
16dKL
8.eJ
!!linebreak:original
=
4g
16eKL
8.cJ
4B
16cKL
8.BJ
=
4A
4g
4B
8cL
8BJ
=
4B
2A
8.aL
16bJk
=
4cc
4e
4e
16dKL
8.eJ
=
4g
16eKL
8.cJ
4d
16cKL
8.BJ
=
4A
16ALL
16G
16A
16BJJ
8cL
8eJ
8dL
8cJ
!!linebreak:original
=
4c
2B
8.aL
16bJk
=
4cc
4e
4e
16dKL
8.eJ
=
4g
16eKL
8.cJ
4B
16cKL
8.BJ
=
4A
4g
4B
8cL
8BJ
=
4B
2A
16AKL
8.BJ
=
4.c
8d
4e
8.dL
16cJk
!!linebreak:original
=
8BL
8gJ
4g
4g
16eKL
8.gJ
=
8aL
8eJ
16aLL
16bJ
8ccJ
8bL
8ddJ
8ccL
8bJ
=
4b
2a
8aL
8bJ
=
8.ccL
16eeJk
12ddL
12cc
12bJ
4cc
16eKL
8.fJ
=
8.gL
16dJk
8cL
8AJ
16BLL
16AJ
8GJ
16AKL
8.BJ
!!linebreak:original
=
4A
4g
4B
8cL
8BJ
=
4B
2A
16AKL
8.BJ
=
4.c
8d
4e
8.dL
16cJk
=
8BL
8gJ
4g
4g
16eKL
8.gJ
=
4a
4e
4b
4e
=
12bL
12cc
12ddJ
8ccL
8bJ
4a
8aL
8bJ
!!linebreak:original
=
8.ccL
16eeJk
12ddL
12cc
12bJ
4cc
16eKL
8.fJ
=
8.gL
16dJk
8cL
8AJ
16BLL
16AJ
8GJ
16AKL
8.BJ
=
4A
4g
4B
8cL
8BJ
=
4B
2A
4ryy
=||
*-
